!!!!SEGMENT: pl-kk--kk-i-2--042-002_lilius-franciszek--missa-pro-tempore-pashali-gloria.krn
!!!cenid: 16xx:1663
!!!COM: Lilius, Franciszek
!!!COM-rismID: pe30020509
!!!CDT: ~1600-1657
!!!CNT: Polish
!!!OPR: Missa pro tempore Pashali
!!!OTL: Gloria
!!!OMV: 002
!!!PDT:
!!!AGN: Sacred; Mass
!!!SMS-siglum: PL-Kk
!!!SMS-shelfmark: Kk.I.2
!!!SMS-shelfwork: 042-002 M
!!!NIFC-rismSourceID: 300258060
!!!NIFC-islandoraID: pl-kk:750
!!!URL-pdf-islandora: https://repozytorium.nifc.pl/islandora/object/pl-kk%3A750/datastream/PDF/view
!!!URL-scan: https://polish.musicsources.pl/pl/lokalizacje/galeria/rekopisy/5828 @EN{Scan on Polish Music Sources Website} @PL{Skany w portalu Dziedzictwo Muzyki Polskiej w otwartym dostępie}
!!!ONB-nifc: Części mszy: Kyrie, Gloria, Credo, Sanctus, Agnus Dei; skany: C: 0065-0066; A: 0168-0170; T: 0269-0270; B: 0368-0369;
!!!AIN: 1 alto 1 bass 1 soprn 1 tenor
!!!key: G:mix
**kern	**text	**kern	**text	**kern	**text	**kern	**text
*part4	*part4	*part3	*part3	*part2	*part2	*part1	*part1
*staff4	*staff4	*staff3	*staff3	*staff2	*staff2	*staff1	*staff1
*I"BASVS	*	*I"TENOR	*	*I"ALTVS	*	*I"DISCANTVS	*
*I'B	*	*I'T	*	*I'A	*	*I'S	*
*Ibass	*	*Itenor	*	*Ialto	*	*Isoprn	*
*ICvox	*	*ICvox	*	*ICvox	*	*ICvox	*
*clefF4	*	*clefC4	*	*clefC4	*	*clefC3	*
*k[]	*	*k[]	*	*k[]	*	*k[]	*
*G:mix	*	*G:mix	*	*G:mix	*	*G:mix	*
*M2/1	*	*M2/1	*	*M2/1	*	*M2/1	*
*met(C|)	*	*met(C|)	*	*met(C|)	*	*met(C|)	*
=1-	=1-	=1-	=1-	=1-	=1-	=1-	=1-
2r	.	1G	Et	2r	.	2r	.
1G	Et	.	.	1B	Et	1d	Et
*	*	*lig	*	*	*	*	*
.	.	1B	in	.	.	.	.
!LO:TX:t=P:problem=kreska pseudotaktowa	!	!	!	!	!	!	!
2G\	in	.	.	2G/	in	2d\	in
=2-	=2-	=2-	=2-	=2-	=2-	=2-	=2-
2C/	ter-	1c	.	1G	ter-	2e\	ter-
2E\	-ra	.	.	.	.	2g\	-ra
*	*	*Xlig	*	*	*	*	*
!LO:TX:t=P:problem=kreska pseudotaktowa	!	!	!	!	!	!	!
1D	pax	1d	.	1A	-ra	1f#X	pax
=3-	=3-	=3-	=3-	=3-	=3-	=3-	=3-
*	*	*lig	*	*	*	*	*
1GG	ho-	1d	-ter-	1.B	pax	1g	ho-
*	*	*	*	*	*	*lig	*
1AA	-mi-	1c	.	.	.	1e	-mi-
.	.	.	.	2.A/	ho-	.	.
*	*	*Xlig	*	*	*	*	*
=4-	=4-	=4-	=4-	=4-	=4-	=4-	=4-
2.BB/	-ni-	1B	.	.	.	1.d	.
.	.	.	.	4G/	.	.	.
.	.	.	.	1G	-mi-	.	.
4C/	.	.	.	.	.	.	.
*	*	*lig	*	*	*	*	*
2D/	.	1A	-ra	.	.	.	.
*	*	*	*	*	*	*Xlig	*
2D/	-bus	.	.	2F#X/	-ni-	2d\	-ni-
=5-	=5-	=5-	=5-	=5-	=5-	=5-	=5-
*	*ij	*	*	*	*	*	*
1GG	et	1B	.	2G/	-bus	1d	-bus
*	*	*	*	*	*ij	*	*
.	.	.	.	1d	et	.	.
*	*	*Xlig	*	*	*	*	*
1.G	.	1B	pax	.	.	0r	.
.	.	.	.	2d\	in	.	.
=6-	=6-	=6-	=6-	=6-	=6-	=6-	=6-
*	*	*lig	*	*	*	*	*
.	.	1B	ho-	2.B\	ter-	.	.
2G\	in	.	.	.	.	.	.
.	.	.	.	4c\	-ra	.	.
2F#X\	ter-	1A	.	1d	pax	1r	.
2F#X\	-ra	.	.	.	.	.	.
*	*	*Xlig	*	*	*	*	*
=7-	=7-	=7-	=7-	=7-	=7-	=7-	=7-
*	*	*lig	*	*	*	*	*ij
1G	pax	1B	.	2d\	ho-	2.g\	et-
.	.	.	.	2.e\	-mi-	.	.
.	.	.	.	.	.	4g\	in
1A	ho-	1c	.	.	.	2e\	ter-
.	.	.	.	4d\	-ni-	.	.
.	.	.	.	2c\	-bus	2f#X\	-ra
*	*	*Xlig	*	*	*	*	*
=8-	=8-	=8-	=8-	=8-	=8-	=8-	=8-
1G	.	1B	-mi-	1.d	ho-	4g\	pax
.	.	.	.	.	.	4d\	ho-
.	.	.	.	.	.	1g	-mi-
2.D/	-mi-	1A	-ni-	.	.	.	.
.	.	.	.	2d\	-mi-	2f#X\	-ni-
4D/	-mi-	.	.	.	.	.	.
=9-	=9-	=9-	=9-	=9-	=9-	=9-	=9-
2GG/	-bus	1G	-bus	2B\	-ni-	2g\	-bus
*	*Xij	*	*	*	*	*	*Xij
1GG	bo-	.	.	1G	-bus	1d	bo-
*	*	*lig	*	*	*Xij	*	*
.	.	1B	bo-	.	.	.	.
2GG/	nae	.	.	2G/	bo-	2d\	-nae
=10-	=10-	=10-	=10-	=10-	=10-	=10-	=10-
*lig	*	*	*	*	*	*	*
1C	vo-	1c	.	1.G	-nae	1e	vo-
*	*	*Xlig	*	*	*	*	*
*	*	*lig	*	*	*	*	*
1D	.	1A	nae	.	.	1.d	-lun-
.	.	.	.	2F#X/	vo-	.	.
*Xlig	*	*	*	*	*	*	*
=11-	=11-	=11-	=11-	=11-	=11-	=11-	=11-
*custos:D	*	*	*	*	*	*	*
1E	.	1G	.	2G/	-lun-	.	.
*	*	*	*	*custos:F	*	*	*
.	.	.	.	2E/	-ta-	2c#X/	.
*	*	*Xlig	*	*	*	*	*
!	!	!	!	!LO:LB:g=original	!	!	!
1.D	.	1A	vo-	2.Fny/	.	2.d\	-ta-
.	.	.	.	4G/	.	4e\	.
=12-	=12-	=12-	=12-	=12-	=12-	=12-	=12-
.	.	1A	-lun-	4A/	.	4fny\	.
.	.	.	.	4B/	.	4g\	.
2C/	-lun	.	.	4c\	.	2.a\	.
.	.	.	.	4A/	.	.	.
*	*	*lig	*	*	*	*	*
2.BB/	ta-	1B	-ta-	0d	.	.	.
.	.	.	.	.	.	4g\	.
*	*	*	*	*	*	*custos:f	*
.	.	.	.	.	.	1g\	.
4C/	.	.	.	.	.	.	.
=13-	=13-	=13-	=13-	=13-	=13-	=13-	=13-
1D	.	1A	.	.	.	.	.
!	!	!	!	!	!	!LO:LB:g=original	!
.	.	.	.	.	.	2f#X\	.
*	*	*Xlig	*	*	*	*lig	*
0GG	-tis	1G	-tis	2B\	-tis	1g	.
.	.	.	.	2G/	lau-	.	.
=14-	=14-	=14-	=14-	=14-	=14-	=14-	=14-
*	*	*lig	*	*	*	*	*
.	.	1G	lau-	4B\	-da-	1d	-tis.
.	.	.	.	4c\	.	.	.
.	.	.	.	4d\	.	.	.
.	.	.	.	4B\	.	.	.
*	*	*	*	*	*	*Xlig	*
*	*	*custos:c	*	*	*	*	*
1r	.	1A	.	2.c\	.	0r	.
.	.	.	.	4d\	.	.	.
*	*	*Xlig	*	*	*	*	*
!	!	!LO:LB:g=original	!	!	!	!	!
=15-	=15-	=15-	=15-	=15-	=15-	=15-	=15-
2r	.	1c	-da-	1.e	.	.	.
2C/	lau-	.	.	.	.	.	.
4E\	-da-	1B	.	.	.	1r	.
4Fny\	.	.	.	.	.	.	.
4G\	.	.	.	2e\	-mus	.	.
4E\	.	.	.	.	.	.	.
=16-	=16-	=16-	=16-	=16-	=16-	=16-	=16-
1F	.	1A	.	2c\	.	2r	.
.	.	.	.	2A/	.	2cny/	Lau-
2.E\	.	1G	-mus	1B	te	4e\	-da-
.	.	.	.	.	.	4fny\	.
.	.	.	.	.	.	4g\	.
4E\	-mus	.	.	.	.	4e\	.
=17-	=17-	=17-	=17-	=17-	=17-	=17-	=17-
2D,/	-te	1A	te	2r	.	2.f\	.
2D/	lau-	.	.	2d\	lau-	.	.
.	.	.	.	.	.	4g\	.
4F\	-da-	1A	be-	4A/	-da-	1a	.
4G\	.	.	.	4B\	.	.	.
4A\	.	.	.	4c\	.	.	.
4F\	.	.	.	4A/	.	.	.
=18-	=18-	=18-	=18-	=18-	=18-	=18-	=18-
2.G\	.	1B	-ne-	2.d\	.	2.g\	.
4G\	-mus	.	.	4d\	-mus	4g\	-mus
*	*	*lig	*	*	*	*	*
2C,/	te	1c	-di-	2e\	te	2g\	te
2C/	be-	.	.	2.c\	be-	1g\	be-
=19-	=19-	=19-	=19-	=19-	=19-	=19-	=19-
1GG	-ne-	1d	.	.	.	.	.
.	.	.	.	4c\	-ne-	.	.
.	.	.	.	2.B\	-di-	2g\	-ne-
*	*	*Xlig	*	*	*	*	*
2.AA/	-di-	1c	-ci-	.	.	2.e\	-di-
.	.	.	.	4A/	.	.	.
.	.	.	.	1A\	-ci-	.	.
4AA/	-ci-	.	.	.	.	4e\	-ci-
=20-	=20-	=20-	=20-	=20-	=20-	=20-	=20-
1E	-mus	1B	-mus	.	.	1e	-mus
.	.	.	.	2G#X/	-mus	.	.
*	*	*lig	*	*	*	*	*
*	*	*	*	*custos:E	*	*	*
1AA,	te	1A	te	1A	te	1c	te
!	!	!	!	!LO:LB:g=original	!	!	!
=21-	=21-	=21-	=21-	=21-	=21-	=21-	=21-
1.C	a-	1G	.	2r	.	2r	.
.	.	.	.	1E	A-	2c/	A-
*	*	*Xlig	*	*	*	*	*
*	*	*lig	*	*	*	*	*
.	.	1G	A-	.	.	2c/	-do-
2C/	-do-	.	.	2E/	-do-	2.e\	-ra-
=22-	=22-	=22-	=22-	=22-	=22-	=22-	=22-
2.FF/	-ra-	1A	.	1F	-ra-	.	.
.	.	.	.	.	.	4d\	.
.	.	.	.	.	.	1d	.
*custos:AA	*	*	*	*	*	*	*
4GG/	.	.	.	.	.	.	.
*	*	*Xlig	*	*	*	*	*
!LO:LB:g=original	!	!	!	!	!	!	!
1.AA	.	1A	-do-	1.E	.	.	.
!	!	!	!	!	!	!LO:TX:b:t=P:problem=# below	!
.	.	.	.	.	.	4c#X/	.
.	.	.	.	.	.	4B/	.
=23-	=23-	=23-	=23-	=23-	=23-	=23-	=23-
!	!	!	!	!	!	!LO:TX:b:t=P:problem=# below	!
.	.	1A	-ra-	.	.	2c#X/	.
!	!	!	!	!	!	!LO:TX:b:t=P:problem=# below	!
2AA/	-mus	.	.	2E/	-mus	2c#X/	mus
*	*	*lig	*	*	*	*	*
1D	te	1A	.	1F#X	te	1d	te
=24-	=24-	=24-	=24-	=24-	=24-	=24-	=24-
2r	.	1B	.	1.Gny	A-	1d	a-
*	*ij	*	*	*	*	*	*
2GG/	a-	.	.	.	.	.	.
*	*	*Xlig	*	*	*	*	*
*	*	*lig	*	*	*	*	*
1AA	-do-	1c	.	.	.	2cny/	-do-
*	*	*	*	*	*	*custos:d	*
.	.	.	.	2F#X/	-do-	2A/	-ra-
!	!	!	!	!	!	!LO:LB:g=original	!
=25-	=25-	=25-	=25-	=25-	=25-	=25-	=25-
1GG	-ra-	1B	.	2G/	-ra-	2.d\	.
.	.	.	.	1d	.	.	.
.	.	.	.	.	.	4e\	.
*	*	*Xlig	*	*	*	*	*
*	*	*lig	*	*	*	*	*
1FF	.	1A	.	.	.	1.f	.
.	.	.	.	2c\	.	.	.
=26-	=26-	=26-	=26-	=26-	=26-	=26-	=26-
1.GG	.	1G	.	2B\	.	.	.
.	.	.	.	1c	.	2e\	.
*	*	*Xlig	*	*	*	*	*
.	.	1G	-mus-	.	.	2.d\	.
2GG/	-mus	.	.	2B\	-mus	.	.
.	.	.	.	.	.	4d\	-mus
=27-	=27-	=27-	=27-	=27-	=27-	=27-	=27-
1C,	te	1G	-te	1c	te	1e	te
*	*Xij	*	*	*	*	*	*
2G\	glo-	1B	glo-	2d\	glo-	2g\	glo-
4G\	-ri-	.	.	4d\	-ri-	4g\	ri-
4G\	-fi-	.	.	4d\	-fi-	4g\	-fi-
=28-	=28-	=28-	=28-	=28-	=28-	=28-	=28-
2C/	-ca-	1G	-ri-	2c\	-ca-	2e\	-ca-
2C/	-m(us)	.	.	2c\	-m(us)	2e\	-m(us)
2G\	glo-	1B	-fi-	2d\	glo-	2g\	glo-
4G\	-ri-	.	.	4d\	-ri-	4g\	-ri-
4G\	-fi-	.	.	4d\	-fi-	4g\	-fi-
=29-	=29-	=29-	=29-	=29-	=29-	=29-	=29-
*	*	*lig	*	*	*	*	*
4D/	-ca-	1d	-ca-	1f	-ca-	1.a	-ca-
4E\	.	.	.	.	.	.	.
4F\	.	.	.	.	.	.	.
4G\	.	.	.	.	.	.	.
4A\	.	1c	.	2e\	.	.	.
4B\	.	.	.	.	.	.	.
2c\	.	.	.	1c\	.	2e\	.
*	*	*Xlig	*	*	*	*	*
=30-	=30-	=30-	=30-	=30-	=30-	=30-	=30-
2.G\	.	1d	-mus	.	.	2.g\	.
.	.	.	.	2B\	-mus-	.	.
4G\	-mus	.	.	.	.	4g\	-mus
*	*	*custos:G	*	*	*	*	*
2C,/	te	1c	te	2c\	-te	2e,\	-te
2.C/	gra-	.	.	2.E/	Gr(a-	2.c/	gr(a-
!	!	!LO:PB:g=original	!	!	!	!	!
=31-	=31-	=31-	=31-	=31-	=31-	=31-	=31-
.	.	1G	Gra-	.	.	.	.
4C/	-ti-	.	.	4E/	ti)-	4c/	-ti)-
2C,/	-as	.	.	2E/	-as	2c/	-as
2.AA/	a-	1A	-ti-	2.E/	a-	2.c/	a-
4AA/	-gi-	.	.	4E/	-gi-	4c/	-gi-
=32-	=32-	=32-	=32-	=32-	=32-	=32-	=32-
*custos:C	*	*	*	*	*	*	*
1GG	-mus	1B	-as	1G	-mus	1d	-mus
!LO:PB:g=original	!	!	!	!	!	!	!
1C	ti-	1c	a-	1G	ti-	1e	ti-
=33-	=33-	=33-	=33-	=33-	=33-	=33-	=33-
1GG	-bi	1B	-gi-	1G	-bi	1d	-bi
*	*	*	*	*custos:F	*	*	*
2r	.	1A	-mus	2r	.	2r	.
!	!	!	!	!LO:PB:g=original	!	!	!
*	*	*	*	*	*ij	*	*ij
!	!	!	!	!LO:TX:b:t=P:problem=# below	!	!	!
2.D/	gra-	.	.	2.F#X/	gra-	2.d\	gr(a-
=34-	=34-	=34-	=34-	=34-	=34-	=34-	=34-
*	*	*lig	*	*	*	*	*
.	.	1A	ti-	.	.	.	.
!	!	!	!	!LO:TX:b:t=P:problem=# below	!	!	!
4D/	-ti-	.	.	4F#X/	-ti-	4d\	-ti)-
!	!	!	!	!LO:TX:b:t=P:problem=# below	!	!	!
2D/	-as	.	.	2F#X/	-as	2d\	-as
2.G\	a-	1B	.	2.G/	a-	2.d\	a-
*	*	*	*	*	*	*custos:e	*
4G\	-gi-	.	.	4G/	-gi-	4d\	-gi-
*	*	*Xlig	*	*	*	*	*
!	!	!	!	!	!	!LO:PB:g=original	!
=35-	=35-	=35-	=35-	=35-	=35-	=35-	=35-
2C/	-mus	1c	.	2G/	-mus	1e	-mus
2AA/	ti-	.	.	2.A/	ti-	.	.
2.BB/	.	1B	.	.	.	0d	ti-
.	.	.	.	4G/	.	.	.
.	.	.	.	1G/	.	.	.
4C/	.	.	.	.	.	.	.
=36-	=36-	=36-	=36-	=36-	=36-	=36-	=36-
1D	.	1A	.	.	.	.	.
.	.	.	.	2F#X/	.	.	.
2GG,/	-bi	1G	-bi	1G	-bi	2d\	-bi
*	*	*	*	*	*Xij	*	*Xij
1C/	pro-	.	.	.	.	1e\	pro-
=37-	=37-	=37-	=37-	=37-	=37-	=37-	=37-
.	.	1G	pro-	2.c\	pro-	.	.
2C/	-pter	.	.	.	.	2e\	-pter
.	.	.	.	4c\	-pter	.	.
1F	ma-	1A	-pter	2c\	ma-	1f	ma-
.	.	.	.	2Fny/	-gnam	.	.
=38-	=38-	=38-	=38-	=38-	=38-	=38-	=38-
1C	.	1c	ma-	0G	glo-	1e	.
*	*	*lig	*	*	*	*	*
2.G\	.	1B	-gnam	.	.	1d	-gna(m)
4F\	-gnam	.	.	.	.	.	.
=39-	=39-	=39-	=39-	=39-	=39-	=39-	=39-
2.E\	glo-	1c	.	1G	-ri-	2.e\	glo-
4E\	-ri-	.	.	.	.	4e\	-ri-
*	*	*Xlig	*	*	*	*	*
*	*	*lig	*	*	*	*	*
1D	-am	1d	glo-	2A,/	-am	1f	-am
.	.	.	.	2.A/	tu-	.	.
=40-	=40-	=40-	=40-	=40-	=40-	=40-	=40-
*lig	*	*	*	*	*	*	*
1AA	tu-	1c	.	.	.	2.e\	tu-
.	.	.	.	4B\	.	.	.
.	.	.	.	1c	.	.	.
!	!	!	!	!	!	!LO:TX:a:t=P:problem=# above	!
.	.	.	.	.	.	4f#X\	.
*	*	*Xlig	*	*	*	*	*
1GG	.	1d	.	.	.	1g,	-am
.	.	.	.	2B\	.	.	.
*Xlig	*	*	*	*	*	*	*
=41-	=41-	=41-	=41-	=41-	=41-	=41-	=41-
1C,	-am	1e	-ri-	1.c	-am	1g	glo-
*	*	*lig	*	*	*	*	*
2GG/	glo-	1d	-am	.	.	2.g\	-ri-
2GG/	-ri-	.	.	1B\	tu-	.	.
.	.	.	.	.	.	4fny\	-am
=42-	=42-	=42-	=42-	=42-	=42-	=42-	=42-
*custos:E	*	*	*	*	*	*	*
1AA	-am	1c	.	.	.	1e	tu-
.	.	.	.	1A	.	.	.
*	*	*Xlig	*	*	*	*	*
!LO:LB:g=original	!	!	!	!	!	!	!
0E	tu-	1B	tu-	.	.	0e	-am
.	.	.	.	4G/	.	.	.
!	!	!	!	!LO:TX:b:t=P:problem=# below	!	!	!
.	.	.	.	4F#X/	.	.	.
=43-	=43-	=43-	=43-	=43-	=43-	=43-	=43-
.	.	1B	-am	1G	.	.	.
*	*	*lig	*	*	*	*	*
2AA/	-am	1A	Do-	2A/	-am	1r	.
1A\	Do-	.	.	1c\	D(o-	.	.
=44-	=44-	=44-	=44-	=44-	=44-	=44-	=44-
.	.	1e	.	.	.	1A	Do-
2.c\	.	.	.	2.e\	.	.	.
*	*	*Xlig	*	*	*	*	*
.	.	1g	.	.	.	2e\	.
4c\	-mi-	.	.	4e\	-mi)-	.	.
*	*	*	*	*custos:c	*	*	*
2B\	-ne	.	.	2d\	-ne	2.g\	.
!	!	!	!	!LO:LB:g=original	!	!	!
=45-	=45-	=45-	=45-	=45-	=45-	=45-	=45-
1c	De-	1e	-mi-	1c	De-	.	.
.	.	.	.	.	.	4g\	-mi-
.	.	.	.	.	.	2e\	-ne
*	*	*custos:e	*	*	*	*	*
1G	-(us)	1d	-ne	1B	-us	1.g	De-
!	!	!LO:LB:g=original	!	!	!	!	!
=46-	=46-	=46-	=46-	=46-	=46-	=46-	=46-
*	*	*lig	*	*	*	*	*
2.c\	Rex	1e	De-	0r	.	.	.
.	.	.	.	.	.	2e\	-us
4c\	coe-	.	.	.	.	.	.
4B\	-le-	1d	.	.	.	2.g\	Rex
4A\	.	.	.	.	.	.	.
4B\	.	.	.	.	.	.	.
4G\	.	.	.	.	.	4g\	coe-
*	*	*Xlig	*	*	*	*	*
=47-	=47-	=47-	=47-	=47-	=47-	=47-	=47-
*	*	*lig	*	*	*	*	*
1A	.	1c	-us	2.c\	Rex	4e\	-le-
.	.	.	.	.	.	4d\	.
.	.	.	.	.	.	4e\	.
*	*	*	*	*	*	*custos:g	*
.	.	.	.	4c\	coe-	4c/	.
!	!	!	!	!	!	!LO:LB:g=original	!
2G,\	-ſtis	1d	.	4B\	-le-	2g\	.
.	.	.	.	4A/	.	.	.
4G\	Rex	.	.	4B\	.	4d\	.
4G\	coe-	.	.	4G/	.	4e\	.
*	*	*Xlig	*	*	*	*	*
=48-	=48-	=48-	=48-	=48-	=48-	=48-	=48-
4F\	-le-	1d	Rex	1A	.	4f\	.
4E\	.	.	.	.	.	4g\	.
4F\	.	.	.	.	.	4a\	.
4D/	.	.	.	.	.	4f\	.
2E\	.	1c	coe-	2G/	.	2g\	.
2F\	.	.	.	2A/	.	1f\	.
=49-	=49-	=49-	=49-	=49-	=49-	=49-	=49-
1C,	ſtis	1c	-le-	1G	.	.	.
.	.	.	.	.	.	2e\	.
1F	De-	1c	-ſtis	1A	ſtis	1f	-ſtis
=50-	=50-	=50-	=50-	=50-	=50-	=50-	=50-
*	*	*lig	*	*	*	*	*
1G	.	1B	De-	2d\	De-	1r	.
.	.	.	.	2.e\	.	.	.
1A	.	1c	.	.	.	2.e\	De-
.	.	.	.	4d\	.	.	.
.	.	.	.	1c\	.	.	.
.	.	.	.	.	.	4f\	.
*	*	*Xlig	*	*	*	*	*
=51-	=51-	=51-	=51-	=51-	=51-	=51-	=51-
1G	.	1d	-us	.	.	1.g	.
.	.	.	.	2B\	-us	.	.
1D,	-us	1d	Pa-	1A	Pa-	.	.
.	.	.	.	.	.	2f\	-us
=52-	=52-	=52-	=52-	=52-	=52-	=52-	=52-
2.E\	Pa-	1c	.	1.G	-ter	1e	Pa-
4F\	.	.	.	.	.	.	.
1G	-ter	1B	-ter	.	.	1d	-ter
.	.	.	.	2B\	o-	.	.
=53-	=53-	=53-	=53-	=53-	=53-	=53-	=53-
*custos:D	*	*	*	*	*	*	*
1C	o-	1c	o-	4A/	-mni-	1e	o-
.	.	.	.	4G/	.	.	.
.	.	.	.	1G	-po-	.	.
!LO:LB:g=original	!	!	!	!	!	!	!
2.D/	mni-	1A	-mni	.	.	2.d\	-mni-
.	.	.	.	2F#X/	.	.	.
4D/	-po-	.	.	.	.	4d\	-po-
=54-	=54-	=54-	=54-	=54-	=54-	=54-	=54-
1GG	-tens	1B	po-	1G	-tens	1d	-tens
2r	.	1B	-tens	2r	.	2r	.
1G\	Do-	.	.	1B\	Do-	1d\	Do-
=55-	=55-	=55-	=55-	=55-	=55-	=55-	=55-
*	*	*lig	*	*	*	*	*
.	.	1G	Do-	.	.	.	.
2G\	-mi-	.	.	2B\	-mi-	2d\	-mi-
1F	-ne	1A	.	2c\	ne	1f	-ne
.	.	.	.	2A/	.	.	.
*	*	*Xlig	*	*	*	*	*
=56-	=56-	=56-	=56-	=56-	=56-	=56-	=56-
1C	fi-	1c	.	1G	fi-	1e	fi-
1C	-li	1c	-mi-	1G	-li	1e	-li
=57-	=57-	=57-	=57-	=57-	=57-	=57-	=57-
1F	v-	1c	-ne	1A	v-	1f	v-
*	*	*lig	*	*	*	*	*
1A	-ni	1c	fi-	2A/	-ni-	1e	-ni-
*	*	*	*	*custos:G	*	*	*
.	.	.	.	1A\	ge-	.	.
=58-	=58-	=58-	=58-	=58-	=58-	=58-	=58-
2.E\	ge-	1B	.	.	.	2.e\	-ge-
!	!	!	!	!LO:LB:g=original	!	!	!
.	.	.	.	2G#X/	-ni-	.	.
4E\	-ni-	.	.	.	.	4e\	ni-
*	*	*Xlig	*	*	*	*	*
*	*	*lig	*	*	*	*	*
*	*	*	*	*	*	*custos:c	*
1AA,	-te	1A	-li	2A/	-te	2e\	-te
!	!	!	!	!	!	!LO:LB:g=original	!
.	.	.	.	2.E/	v-	1c\	v-
=59-	=59-	=59-	=59-	=59-	=59-	=59-	=59-
2C/	v-	1G	.	.	.	.	.
.	.	.	.	4Fny/	-ni-	.	.
2E\	-ni	.	.	1Gny	-ge-	2B/	-ni-
*	*	*Xlig	*	*	*	*	*
1.D	ge-	1A	v-	.	.	1.d	-ge-
.	.	.	.	4F/	.	.	.
.	.	.	.	4E/	.	.	.
=60-	=60-	=60-	=60-	=60-	=60-	=60-	=60-
!	!	!	!	!LO:TX:b:t=P:problem=# below	!	!	!
.	.	1A	-ni-	2F#X/	.	.	.
!	!	!	!	!LO:TX:b:t=P:problem=# below	!	!	!
2D/	-ni-	.	.	2F#X/	-ni-	2d\	-ni-
2GG/	-te	1B	-ge-	1G	-te	0d	-te
1G\	Je-	.	.	.	.	.	.
=61-	=61-	=61-	=61-	=61-	=61-	=61-	=61-
.	.	1A	-ni-	2r	.	.	.
2F\	-ſu	.	.	1d	Je-	.	.
*	*	*custos:d	*	*	*	*	*
1E	Chr(i-	1G	-te	.	.	2r	.
.	.	.	.	2c\	-ſu	1g\	Je-
!	!	!LO:LB:g=original	!	!	!	!	!
=62-	=62-	=62-	=62-	=62-	=62-	=62-	=62-
*	*	*lig	*	*	*	*	*
1D	.	1d	Je-	2B\	.	.	.
.	.	.	.	1A	Chr(i-	2f\	-ſu
1AA,	-st)e	1c	.	.	.	1e	Chr(i-
.	.	.	.	2c\	.	.	.
*	*	*Xlig	*	*	*	*	*
=63-	=63-	=63-	=63-	=63-	=63-	=63-	=63-
*	*ij	*	*	*	*	*	*
1BB	Je-	1d	-ſu	2.B\	.	2d\	-st)e
*	*	*	*	*	*	*	*ij
.	.	.	.	.	.	1g	Je-
.	.	.	.	4A/	.	.	.
*	*	*lig	*	*	*	*	*
1C	-ſu	1e	.	2G/	-st)e	.	.
.	.	.	.	1c\	Je-	2e\	-ſu
=64-	=64-	=64-	=64-	=64-	=64-	=64-	=64-
!	!	!	!	!	!	!LO:TX:a:t=P:problem=# above	!
0D	Chri-	1d	.	.	.	2f#X\	Chr(i-
.	.	.	.	2B\	-ſu	1g	.
*	*	*Xlig	*	*	*	*	*
.	.	1d	.	1A	Chri-	.	.
!	!	!	!	!	!	!LO:TX:b:t=P:problem=# below	!
.	.	.	.	.	.	2f#X\	.
=65-	=65-	=65-	=65-	=65-	=65-	=65-	=65-
2GG,/	-ste	1B	Chri-	4G/	ſte	1g	-st)e
*	*Xij	*	*	*	*	*	*Xij
.	.	.	.	2d\	D(o-	.	.
2.G\	Do-	.	.	.	.	.	.
.	.	.	.	4d\	-mi)-	.	.
.	.	1B	-ſte	2d\	-ne	1r	.
4G\	-mi-	.	.	.	.	.	.
*custos:E	*	*	*	*	*	*	*
2G\	-ne	.	.	1B\	De-	.	.
!LO:LB:g=original	!	!	!	!	!	!	!
=66-	=66-	=66-	=66-	=66-	=66-	=66-	=66-
*	*	*lig	*	*	*	*	*
2.E\	De-	1e	Do-	.	.	2r	.
.	.	.	.	2c\	.	2.g\	Do-
4F\	-us	.	.	.	.	.	.
2G\	a-	1d	.	1B	-us	.	.
.	.	.	.	.	.	4g\	-mi-
2G\	-gnus	.	.	.	.	2g\	-ne
*	*	*Xlig	*	*	*	*	*
=67-	=67-	=67-	=67-	=67-	=67-	=67-	=67-
*	*	*lig	*	*	*	*	*
1A	De-	1c	.	1r	.	2.e\	De-
.	.	.	.	.	.	4fny\	.
1G,	-i	1d	.	2r	.	1g	-us
.	.	.	.	2.G/	D(o-	.	.
*	*	*Xlig	*	*	*	*	*
=68-	=68-	=68-	=68-	=68-	=68-	=68-	=68-
*	*ij	*	*	*	*	*	*
2.C/	Do-	1c	mi-	.	.	1e	a-
.	.	.	.	4G/	-mi)-	.	.
.	.	.	.	2G/	-ne	.	.
4C/	-mi-	.	.	.	.	.	.
1C	-ne	1c	-ne	4E/	De-	1.g	-gnus
.	.	.	.	4Fny/	-(us)	.	.
.	.	.	.	4G/	a-	.	.
.	.	.	.	4G/	-gn(us)	.	.
=69-	=69-	=69-	=69-	=69-	=69-	=69-	=69-
*	*	*	*	*custos:G	*	*	*
2.AA/	De-	1c	De-	1A	De-	.	.
.	.	.	.	.	.	1f	De-
4BB/	-us	.	.	.	.	.	.
!	!	!	!	!LO:LB:g=original	!	!	!
2C/	a-	1c	-us	1G	.	.	.
2C/	-gnus	.	.	.	.	2e\	.
=70-	=70-	=70-	=70-	=70-	=70-	=70-	=70-
*	*	*lig	*	*	*	*	*
1D	De-	1B	a-	1F	.	2d\	.
.	.	.	.	.	.	2f\	.
1C	.	1c	.	2G/	-i	1e	.
*	*	*	*	*	*ij	*	*
.	.	.	.	2.G/	Do-	.	.
*	*	*Xlig	*	*	*	*	*
=71-	=71-	=71-	=71-	=71-	=71-	=71-	=71-
*	*	*	*	*	*	*custos:g	*
1GG	-i	1d	.	.	.	1B	-i
.	.	.	.	4G/	-mi-	.	.
.	.	.	.	2G/	-ne	.	.
!	!	!	!	!	!	!LO:LB:g=original	!
2r	.	1d	-gnus	2.F#X/	De-	1r	.
2.D/	Do-	.	.	.	.	.	.
.	.	.	.	4G/	.	.	.
=72-	=72-	=72-	=72-	=72-	=72-	=72-	=72-
*	*	*lig	*	*	*	*	*
.	.	1d	De-	2A/	.	2r	.
4D/	-mi-	.	.	.	.	.	.
2BB/	-ne	.	.	2B\	-us	2.g\	Do-
2.C/	De-	1c	.	1G	A-	.	.
.	.	.	.	.	.	4g\	-mi-
.	.	.	.	.	.	1g\	-ne
4D/	-us	.	.	.	.	.	.
*	*	*Xlig	*	*	*	*	*
=73-	=73-	=73-	=73-	=73-	=73-	=73-	=73-
*	*	*lig	*	*	*	*	*
1E	a-	1B	.	2G/	-gnus	.	.
.	.	.	.	1G	De-	2.e\	De-
1C	-gnus	1c	.	.	.	.	.
.	.	.	.	.	.	4f\	-(us)
.	.	.	.	2E/	.	4g\	a-
.	.	.	.	.	.	4g\	-gnus
*	*	*Xlig	*	*	*	*	*
=74-	=74-	=74-	=74-	=74-	=74-	=74-	=74-
1F	De-	1A	.	2Fny/	-i	2a\	De-
*	*	*	*	*	*Xij	*	*
.	.	.	.	2c\	fi-	2f\	.
1C	.	1G	i	1c	-li-	1e	-i
=75-	=75-	=75-	=75-	=75-	=75-	=75-	=75-
*	*	*lig	*	*	*	*	*
1GG	-i	1d	fi-	1B	-us	1g	fi-
*	*Xij	*	*	*	*	*	*
1AA	fi-	1c	.	1.A	Pa-	1e	-li-
*	*	*Xlig	*	*	*	*	*
=76-	=76-	=76-	=76-	=76-	=76-	=76-	=76-
1BB	-li-	1B	-li-	.	.	1d	-us
.	.	.	.	1G	.	.	.
1D	-us	1A	-us	.	.	1.d	Pa-
!	!	!	!	!LO:TX:b:t=P:problem=# below	!	!	!
.	.	.	.	2F#X/	.	.	.
=77-	=77-	=77-	=77-	=77-	=77-	=77-	=77-
1E	Pa-	1G	Pa-	1.G	.	.	.
!	!	!	!	!	!	!LO:TX:b:t=P:problem=# below	!
.	.	.	.	.	.	2c#X/	.
0D	.	0A	.	.	.	0d	.
.	.	.	.	4F#y/	.	.	.
.	.	.	.	4E/	.	.	.
=78-	=78-	=78-	=78-	=78-	=78-	=78-	=78-
!	!	!	!	!LO:TX:a:t=P:problem=# above	!	!	!
.	.	.	.	1F#X	.	.	.
1GG;l	-tris.	1B;l	-tris.	1G;l	-tris	1d;<l	-tris
!LO:LB:g=original	!	!LO:LB:g=original	!	!LO:LB:g=original	!	!	!
=79||-	=79||-	=79||-	=79||-	=79||-	=79||-	=79||-	=79||-
*met(C|)	*	*met(C)	*	*met(C)	*	*met(C|)	*
2r	.	1G	Qui	1B	Qui	1d	Qui
2G\	Qui	.	.	.	.	.	.
*	*	*lig	*	*	*	*	*
1C	tol-	1G	tol-	0c	tol-	1e	tol-
=80-	=80-	=80-	=80-	=80-	=80-	=80-	=80-
1F	.	1A	.	.	.	0f	.
*	*	*Xlig	*	*	*	*	*
1F	-lis	1c	.	1A	.	.	.
=81-	=81-	=81-	=81-	=81-	=81-	=81-	=81-
1C	pec-	1c	-lis	1.G	-lis	1e	-lis
*	*	*lig	*	*	*	*	*
1GG	-ca-	1B	pec-	.	.	1d	pec-
.	.	.	.	2G/	pe-	.	.
=82-	=82-	=82-	=82-	=82-	=82-	=82-	=82-
1AA	.	1A	.	1E	-ca-	1cny	.
*	*	*Xlig	*	*	*	*	*
1GG	-ta	1B	.	1.G	.	1d	-ca-
=83-	=83-	=83-	=83-	=83-	=83-	=83-	=83-
*	*	*	*	*	*	*custos:d	*
1C	mun-	1c	-ca-	.	.	1e	.
.	.	.	.	2G/	-ta	.	.
!	!	!	!	!	!	!LO:LB:g=original	!
2GG/	-di	1B	-ta	1G	m(un)-	0d	-ta
2G\	pec-	.	.	.	.	.	.
=84-	=84-	=84-	=84-	=84-	=84-	=84-	=84-
*	*	*lig	*	*	*	*	*
2G\	-ca-	1A	mun-	2D/	-di	.	.
2F\	-ta	.	.	2d\	pec-	.	.
1E	mun-	1G	.	2d\	-ca-	2e\	mun-
!	!	!	!	!LO:TX:a:t=P:problem=# above	!	!	!
.	.	.	.	2c#X\	-ta	1g\	.
*	*	*Xlig	*	*	*	*	*
=85-	=85-	=85-	=85-	=85-	=85-	=85-	=85-
1D	.	1A	.	1d	m(un)-	.	.
!	!	!	!	!	!	!LO:TX:b:t=P:problem=# below	!
.	.	.	.	.	.	2f#X\	.
2GG/	-di	1G	-di	2B\	-di	1g	-di
1C/	mi-	.	.	1e\	mi-	.	.
=86-	=86-	=86-	=86-	=86-	=86-	=86-	=86-
*	*	*lig	*	*	*	*	*
.	.	1G	mi-	.	.	2r	.
2BB/	ſe-	.	.	2d\	-ſe-	1g	mi-
1AA	-re-	1A	.	2cny\	.	.	.
.	.	.	.	2C/	-re-	2fny\	-ſe-
*	*	*Xlig	*	*	*	*	*
=87-	=87-	=87-	=87-	=87-	=87-	=87-	=87-
1GG	-re	1B	-ſe-	1G	-re	2e\	-re-
.	.	.	.	.	.	2d\	-re-
1FF	no-	1c	-re-	1.A	no-	2.f\	-no-
.	.	.	.	.	.	4e\	.
=88-	=88-	=88-	=88-	=88-	=88-	=88-	=88-
1GG	.	1B	.	.	.	1d	.
.	.	.	.	2.G/	.	.	.
2.AA/	.	1A	.	.	.	0c	.
.	.	.	.	4Fny/	.	.	.
.	.	.	.	1F/	.	.	.
4BB/	.	.	.	.	.	.	.
=89-	=89-	=89-	=89-	=89-	=89-	=89-	=89-
1C	.	1G	-re	.	.	.	.
.	.	.	.	2E/	.	.	.
1FF	-bis	1A	no-	1F	-bis	2c/	-bis
.	.	.	.	.	.	2c/	qui
=90-	=90-	=90-	=90-	=90-	=90-	=90-	=90-
*custos:C	*	*	*	*	*	*	*
2r	.	1G,	-bis	1r	.	2e\	tol-
!LO:PB:g=original	!	!	!	!	!	!	!
2C/	qui	.	.	.	.	2e\	-lis
2E\	tol-	1G	qui	2r	.	1g	pec-
2E\	-lis	.	.	2G/	qui	.	.
=91-	=91-	=91-	=91-	=91-	=91-	=91-	=91-
*	*	*lig	*	*	*	*	*
1G	pec-	1G	tol-	2B\	tol-	4d\	-ca-
.	.	.	.	.	.	4c\	.
.	.	.	.	2B\	-lis	4d\	ta
.	.	.	.	.	.	4e\	.
2F\	-ca-	1A	.	2c\	pec-	1f	mun-
4F\	-ta	.	.	2.c\	-ca-	.	.
4FF/	mun-	.	.	.	.	.	.
*	*	*Xlig	*	*	*	*	*
=92-	=92-	=92-	=92-	=92-	=92-	=92-	=92-
2AA/	-di	1c	.	.	.	2e\	-di
.	.	.	.	4B\	-ta	.	.
2AA/	qui	.	.	2A/	m(un)-	2c/	qui
*	*	*	*	*custos:E	*	*	*
2C/	tol-	1c	-lis	2E/	-di	2e\	tol-
!	!	!	!	!LO:PB:g=original	!	!	!
4C/	-lis	.	.	2e\	pec-	2e\	-lis
4D/	.	.	.	.	.	.	.
=93-	=93-	=93-	=93-	=93-	=93-	=93-	=93-
*	*	*lig	*	*	*	*	*
4E\	pec-	1B	pec-	2e\	-ca-	2g\	pec-
4F\	.	.	.	.	.	.	.
2G\	-ca-	.	.	2d\	-ta	1g	-ca-
*	*	*custos:d	*	*	*	*	*
1A	.	1c	.	2c\	mun-	.	.
!	!	!	!	!	!	!LO:TX:b:t=P:problem=# below	!
.	.	.	.	2A/	-di	2f#X\	.
*	*	*Xlig	*	*	*	*	*
!	!	!LO:LB:g=original	!	!	!	!	!
=94-	=94-	=94-	=94-	=94-	=94-	=94-	=94-
*	*	*	*	*	*	*custos:g	*
2G\	-ta	1d	ca-	2B\	pec-	1g	-ta
2GG/	qui	.	.	2B\	-ca-	.	.
!	!	!	!	!	!	!LO:PB:g=original	!
*	*	*lig	*	*	*	*	*
2BB/	tol-	1d	-ta	4d\	.	2.g\	mun-
.	.	.	.	4c\	.	.	.
2BB/	-lis	.	.	4B\	.	.	.
.	.	.	.	4A/	.	4fny\	.
=95-	=95-	=95-	=95-	=95-	=95-	=95-	=95-
2C/	pec-	1c	.	2G/	.	1e	.
2AA/	-ca-	.	.	2.A/	-ta	.	.
*	*	*Xlig	*	*	*	*	*
2.BB/	-ta	1B	mun-	.	.	0d	.
.	.	.	.	4G/	.	.	.
.	.	.	.	1G/	mun-	.	.
4C/	.	.	.	.	.	.	.
=96-	=96-	=96-	=96-	=96-	=96-	=96-	=96-
1D	mun-	1A	.	.	.	.	.
.	.	.	.	2F#X/	.	.	.
2GG/	-di	1B	-di	2G/	-di	2d\	di
2.G\	ſus-	.	.	2.B\	ſuſ-	2.d\	ſuſ-
=97-	=97-	=97-	=97-	=97-	=97-	=97-	=97-
*	*	*lig	*	*	*	*	*
.	.	1G	ſu-	.	.	.	.
4G\	-ci-	.	.	4B\	-ci-	4d\	-ci-
2G\	-pe	.	.	2B\	-pe	2d\	-pe
1.F	de-	1A	.	2.c/	de-	1.f	de-
.	.	.	.	4B/	-pre-	.	.
*	*	*Xlig	*	*	*	*	*
=98-	=98-	=98-	=98-	=98-	=98-	=98-	=98-
.	.	1c	.	2A/	-ca-	.	.
2E\	-pre-	.	.	2G/	-ti-	2g\	-pre-
1F	-ca-	1c	-ſci-	1A	-o-	1f	-ca-
=99-	=99-	=99-	=99-	=99-	=99-	=99-	=99-
*custos:G	*	*	*	*	*	*	*
1C	-ti-	1c	-pe	1.G	-nem	1e	-ti-
!LO:LB:g=original	!	!	!	!	!	!	!
1G	-o-	1B	de	.	.	2d\	-o-
.	.	.	.	2.d\	no-	1g\	.
=100-	=100-	=100-	=100-	=100-	=100-	=100-	=100-
1A	-nem	1c	pre-	.	.	.	.
.	.	.	.	4c\	.	.	.
!	!	!	!	!	!	!LO:TX:b:t=P:problem=# below	!
.	.	.	.	1c	.	2f#X\	-nem
1G	no-	1d	-ca-	.	.	1g	noſ-
.	.	.	.	2B\	.	.	.
=101-	=101-	=101-	=101-	=101-	=101-	=101-	=101-
1C	-ſtram	1c	-ti-	1c	-ſtram	1e	-tram
2r	.	1d	-o-	1.G	de-	2r	.
1GG/	de-	.	.	.	.	1B/	de-
=102-	=102-	=102-	=102-	=102-	=102-	=102-	=102-
*	*	*lig	*	*	*	*	*
.	.	1d	-nem	.	.	.	.
2GG/	-pre-	.	.	2G/	-pre-	2B/	-pre-
1C	-ca-	1e	.	2.G/	-ca-	2.c/	-ca-
*	*	*	*	*custos:B	*	*	*
.	.	.	.	4A\	-ti	4c/	-ti-
*	*	*Xlig	*	*	*	*	*
!	!	!	!	!LO:LB:g=original	!	!	!
=103-	=103-	=103-	=103-	=103-	=103-	=103-	=103-
1BB	-ti-	1d	.	4B\	o-	2d\	-o-
.	.	.	.	4B\	-nem	.	.
.	.	.	.	2.B\	no-	2d\	-nem
2.C/	-o-	1c	.	.	.	0.e	noſ-
.	.	.	.	4A/	.	.	.
.	.	.	.	1A\	.	.	.
4D/	-nem	.	.	.	.	.	.
=104-	=104-	=104-	=104-	=104-	=104-	=104-	=104-
0E	no-	1B	no-	.	.	.	.
.	.	.	.	4G/	.	.	.
!	!	!	!	!LO:TX:b:t=P:problem=# below	!	!	!
.	.	.	.	4F#X/	.	.	.
!	!	!	!	!LO:TX:b:t=P:problem=# below	!	!	!
.	.	1B	-ſtram	1G#X	.	.	.
=105-	=105-	=105-	=105-	=105-	=105-	=105-	=105-
0AA	-ſtram	1A	qui	2A/	-ſtram	0c	-tram
.	.	.	.	2A/	qui	.	.
*	*	*lig	*	*	*	*	*
.	.	1e	ſe-	2c\	ſe-	.	.
.	.	.	.	4c\	-des	.	.
.	.	.	.	4c\	ad	.	.
=106-	=106-	=106-	=106-	=106-	=106-	=106-	=106-
2r	.	1d	.	2.f\	dex-	1r	.
2D/	qui	.	.	.	.	.	.
.	.	.	.	4f\	-te-	.	.
*lig	*	*Xlig	*	*	*	*	*
1A	ſe-	1e	.	1c	-r(am)	2r	.
.	.	.	.	.	.	2A/	qui
=107-	=107-	=107-	=107-	=107-	=107-	=107-	=107-
1G	.	1g	.	1r	.	1d	ſe-
*Xlig	*	*	*	*	*	*	*
4A\	.	1e	-des	2r	.	2c/	-des
4A\	-des	.	.	.	.	.	.
*	*	*	*	*	*	*custos:g	*
2.c\	ad	.	.	2A/	qui	2e\	ad
!	!	!	!	!	!	!LO:LB:g=original	!
=108-	=108-	=108-	=108-	=108-	=108-	=108-	=108-
*	*	*custos:e	*	*	*	*	*
.	.	1d	ad	1d	ſe-	2.g\	dex-
4c\	dex-	.	.	.	.	.	.
2B\	-te-	.	.	.	.	.	.
.	.	.	.	.	.	4fny\	-te-
!	!	!LO:PB:g=original	!	!	!	!	!
2c\	.	1e	dex-	2c\	-des	2e\	-ram
2C/	-ram	.	.	2e\	ad	1c\	Pa-
=109-	=109-	=109-	=109-	=109-	=109-	=109-	=109-
*lig	*	*	*	*	*	*	*
1G	Pa-	1d	-te-	2.g\	dex-	.	.
.	.	.	.	.	.	2B/	.
.	.	.	.	4f\	-te-	.	.
1A	.	1c	-ram	2e\	-r(am)	1c	-tris
.	.	.	.	1c\	Pa-	.	.
*Xlig	*	*	*	*	*	*	*
=110-	=110-	=110-	=110-	=110-	=110-	=110-	=110-
1G	.	1d	Pa-	.	.	2r	.
.	.	.	.	2B\	.	1g	mi-
1C	-tris	1c	-tris	1c,	-tris	.	.
.	.	.	.	.	.	2e\	-ſe-
=111-	=111-	=111-	=111-	=111-	=111-	=111-	=111-
2r	.	1B	mi-	1.Gny	mi-	1d	-re-
2G\	mi-	.	.	.	.	.	.
1E	-ſe	1c	-ſe-	.	.	1e	-re-
.	.	.	.	2G/	-ſe-	.	.
=112-	=112-	=112-	=112-	=112-	=112-	=112-	=112-
2.D/	re-	1d	-re	2Fny/	-re-	1.f	-no-
.	.	.	.	1A	-re	.	.
4C/	.	.	.	.	.	.	.
*custos:AA	*	*	*	*	*	*	*
*	*	*lig	*	*	*	*	*
1BB-X	-re	1d	re	.	.	.	.
.	.	.	.	1G/	no-	2g\	.
!LO:LB:g=original	!	!	!	!	!	!	!
=113-	=113-	=113-	=113-	=113-	=113-	=113-	=113-
1AA	.	1c	.	.	.	1a	.
!	!	!	!	!LO:TX:b:t=P:problem=# below	!	!	!
.	.	.	.	2F#X/	.	.	.
*lig	*	*Xlig	*	*	*	*	*
*	*	*lig	*	*	*	*lig	*
1GG	no-	1B	.	2G/	.	1d	.
.	.	.	.	2B/	.	.	.
=114-	=114-	=114-	=114-	=114-	=114-	=114-	=114-
1C	.	1c	.	4A/	.	1e	.
*	*	*	*	*custos:G	*	*	*
.	.	.	.	4G/	.	.	.
!	!	!	!	!LO:LB:g=original	!	!	!
.	.	.	.	1G	.	.	.
*Xlig	*	*Xlig	*	*	*	*Xlig	*
1D	.	1A	no-	.	.	1d	.
!	!	!	!	!LO:TX:b:t=P:problem=# below	!	!	!
.	.	.	.	2F#X/	.	.	.
=115-	=115-	=115-	=115-	=115-	=115-	=115-	=115-
2GG/	-bis	1G,	-bis	2G/	-bis	2B/	bis
1C	quo-	.	.	1E	quo-	1c	Quo-
.	.	1G	quo-	.	.	.	.
2C/	-ni-	.	.	2E/	-ni-	2c/	-ni-
=116-	=116-	=116-	=116-	=116-	=116-	=116-	=116-
1AA	-am	1A	-ni-	1E	-am	1c	-am
1GG	tu	1B	-am	2G/	tu	1.d	tu
.	.	.	.	2.G/	ſo-	.	.
=117-	=117-	=117-	=117-	=117-	=117-	=117-	=117-
*	*	*lig	*	*	*	*	*
1G	ſo-	1B	tu	.	.	.	.
.	.	.	.	4A/	.	.	.
.	.	.	.	2B\	.	1e	ſo-
1A	.	1A	.	1c	-lus	.	.
.	.	.	.	.	.	2f#X\	-lus
*	*	*Xlig	*	*	*	*	*
=118-	=118-	=118-	=118-	=118-	=118-	=118-	=118-
1G	-lus	1B	.	1d	San-	0.g	San-
2.C/	San-	1c	ſo-	0e	.	.	.
4D/	.	.	.	.	.	.	.
=119-	=119-	=119-	=119-	=119-	=119-	=119-	=119-
*lig	*	*	*	*	*	*	*
1E	.	1B	-lus	.	.	.	.
1F	.	1A	San-	1c	.	1fny	.
*Xlig	*	*	*	*	*	*	*
=120-	=120-	=120-	=120-	=120-	=120-	=120-	=120-
*	*	*lig	*	*	*	*	*
1C	-ctus	1G	-ctus	0c	-ctus	1e	-ct(us)
1r	.	1A	.	.	.	2r	.
.	.	.	.	.	.	2c/	tu
*	*	*Xlig	*	*	*	*	*
=121-	=121-	=121-	=121-	=121-	=121-	=121-	=121-
*	*	*lig	*	*	*	*	*
1GG	tu	1B	tu	0r	.	2d\	ſo-
*	*	*	*	*	*	*custos:f	*
.	.	.	.	.	.	1e	.
1AA	.	1c	.	.	.	.	.
!	!	!	!	!	!	!LO:LB:g=original	!
.	.	.	.	.	.	2f\	-lus
*	*	*Xlig	*	*	*	*	*
=122-	=122-	=122-	=122-	=122-	=122-	=122-	=122-
*	*	*lig	*	*	*	*	*
1BBny	ſo-	1d	ſo-	2r	.	2.g\	Do-
.	.	.	.	1G	Tu	.	.
.	.	.	.	.	.	4f\	.
*	*	*custos:d	*	*	*	*	*
1C	-lus	1c	.	.	.	4e\	.
.	.	.	.	.	.	4d\	.
.	.	.	.	2A/	ſo-	2c/	.
*	*	*Xlig	*	*	*	*	*
!	!	!LO:LB:g=original	!	!	!	!	!
=123-	=123-	=123-	=123-	=123-	=123-	=123-	=123-
*	*	*lig	*	*	*	*	*
1BB	Do-	1d	-lus	2B\	-lus	1.G	.
.	.	.	.	2d\	Do-	.	.
1C	.	1e	.	2.c\	.	.	.
.	.	.	.	.	.	2g\	.
.	.	.	.	4B\	.	.	.
*	*	*Xlig	*	*	*	*	*
=124-	=124-	=124-	=124-	=124-	=124-	=124-	=124-
*	*	*lig	*	*	*	*	*
1D	.	1d	Do-	2A/	.	1f	.
.	.	.	.	2.B\	.	.	.
1.E	.	1c	.	.	.	1.e	-mi-
.	.	.	.	4A/	.	.	.
.	.	.	.	1A\	.	.	.
*	*	*Xlig	*	*	*	*	*
=125-	=125-	=125-	=125-	=125-	=125-	=125-	=125-
.	.	1B	-mi-	.	.	.	.
!	!	!	!	!LO:TX:b:t=P:problem=# below	!	!	!
2E\	-mi-	.	.	2G#X/	-mi-	2e\	-nus
1AA	-n(us)	1A	-nus	1A	-n(us)	1c	.
=126-	=126-	=126-	=126-	=126-	=126-	=126-	=126-
1C	tu	1G	tu	0r	.	0r	.
*	*	*lig	*	*	*	*	*
2E\	ſo-	1G	ſo-	.	.	.	.
2G\	-l(us)	.	.	.	.	.	.
=127-	=127-	=127-	=127-	=127-	=127-	=127-	=127-
1F	al-	1A	.	1r	.	2r	.
.	.	.	.	.	.	2c\	tu
*	*	*Xlig	*	*	*	*	*
*custos:F	*	*	*	*	*	*	*
1E	-tiſ-	1c	.	2r	.	2e\	ſo-
.	.	.	.	2Gny/	tu	2g\	-lus
!LO:LB:g=original	!	!	!	!	!	!	!
=128-	=128-	=128-	=128-	=128-	=128-	=128-	=128-
2F\	.	1c	-lus	2A/	ſo-	2f\	al-
*	*	*	*	*custos:d	*	*	*
2A\	-ſsi-	.	.	2c\	-lus	4e\	-tiſ-
.	.	.	.	.	.	4f\	.
!	!	!	!	!LO:LB:g=original	!	!	!
*	*	*lig	*	*	*	*	*
2G\	-mus	1B	al-	1d	al-	2.g\	.
2GG/	tu	.	.	.	.	.	.
.	.	.	.	.	.	4g\	-ſi-
=129-	=129-	=129-	=129-	=129-	=129-	=129-	=129-
2AA/	ſo-	1A	.	2.c\	-tiſ-	2e\	-mus
2C/	.	.	.	.	.	4r	.
*	*	*	*	*	*	*	*ij
.	.	.	.	4c\	-ſi-	4c/	tu
*	*	*Xlig	*	*	*	*	*
*	*	*lig	*	*	*	*	*
1BB	-lus	1B	-tiſ	2G/	-mus	2d\	ſo-
.	.	.	.	4r	.	2g\	-lus
*	*	*	*	*	*ij	*	*
.	.	.	.	4G/	tu	.	.
=130-	=130-	=130-	=130-	=130-	=130-	=130-	=130-
1AA	al-	1c	.	2A\	ſo-	2e\	al-
.	.	.	.	2c\	-lus	2.a\	-tiſ-
*	*	*Xlig	*	*	*	*	*
2.BB/	-tiſ-	1B	.	1d	al-	.	.
.	.	.	.	.	.	4g\	.
.	.	.	.	.	.	1g\	-ſi-
4C/	.	.	.	.	.	.	.
=131-	=131-	=131-	=131-	=131-	=131-	=131-	=131-
2D/	.	1A	.	2.d\	-ti-	.	.
2D/	-ſi-	.	.	.	.	2f#X\	.
.	.	.	.	4d\	-ſi-	.	.
1GG	-mus	1G	ſi-	2B\	-mus	0g	-mus
*	*	*	*	*	*Xij	*	*Xij
.	.	.	.	2.d\	Je-	.	.
=132-	=132-	=132-	=132-	=132-	=132-	=132-	=132-
2r	.	1G	-mus	.	.	.	.
.	.	.	.	4c\	.	.	.
1G	Je-	.	.	1B	.	.	.
*	*	*lig	*	*	*	*	*
.	.	1d	Je-	.	.	1r	.
2F\	-ſu	.	.	2A/	-ſu	.	.
=133-	=133-	=133-	=133-	=133-	=133-	=133-	=133-
*lig	*	*	*	*	*	*	*
1E	Chri-	1c	.	1G	Chr(i-	2r	.
.	.	.	.	.	.	1g	Je-
*	*	*Xlig	*	*	*	*	*
*	*	*lig	*	*	*	*	*
1D	.	1d	-ſu	2.A/	.	.	.
.	.	.	.	.	.	2fny\	-ſu
.	.	.	.	4B\	.	.	.
*Xlig	*	*	*	*	*	*	*
=134-	=134-	=134-	=134-	=134-	=134-	=134-	=134-
*	*	*	*	*	*	*custos:c	*
1C	.	1e	.	4c\	.	2e\	Chri-
.	.	.	.	4B/	.	.	.
!	!	!	!	!	!	!LO:LB:g=original	!
.	.	.	.	4A/	.	1c	.
.	.	.	.	4G/	.	.	.
*	*	*Xlig	*	*	*	*	*
!	!	!	!	!LO:TX:b:t=P:problem=# below	!	!	!
0D	.	1d	.	2F#X/	.	.	.
.	.	.	.	1G/	.	2B/	.
=135-	=135-	=135-	=135-	=135-	=135-	=135-	=135-
*	*	*lig	*	*	*	*	*
.	.	1d	Chri-	.	.	1A	.
!	!	!	!	!LO:TX:b:t=P:problem=# below	!	!	!
.	.	.	.	2F#X/	.	.	.
2GG/	-ſte	1B	.	1G	-ſt)e	1G	-ſte
2GG/	cu(m)	.	.	.	.	.	.
*	*	*Xlig	*	*	*	*	*
=136-	=136-	=136-	=136-	=136-	=136-	=136-	=136-
2G\	San-	1B	ſte	2r	.	1r	.
2G\	-cto	.	.	2G/	Cum	.	.
*	*	*lig	*	*	*	*	*
2.F\	Spi-	1A	cum	2d\	Sa(n)-	2r	.
.	.	.	.	2d\	cto	2c/	Cum
4F\	-ri-	.	.	.	.	.	.
=137-	=137-	=137-	=137-	=137-	=137-	=137-	=137-
2.E\	.	1e	.	2c\	Spi-	1.g	San-
.	.	.	.	2B\	-ri-	.	.
4D/	.	.	.	.	.	.	.
*	*	*Xlig	*	*	*	*	*
1C	-tu	1e	San-	1c	-tu	.	.
.	.	.	.	.	.	2g\	-cto
=138-	=138-	=138-	=138-	=138-	=138-	=138-	=138-
*	*	*lig	*	*	*	*	*
2r	.	1d	-cto	0r	.	2.f\	Spi-
2D/	cum	.	.	.	.	.	.
.	.	.	.	.	.	4f\	-ri-
*	*	*custos:d	*	*	*	*	*
2A\	Sa(n)-	1c	.	.	.	1e	-tu
2A\	-cto	.	.	.	.	.	.
*	*	*Xlig	*	*	*	*	*
!	!	!LO:LB:g=original	!	!	!	!	!
=139-	=139-	=139-	=139-	=139-	=139-	=139-	=139-
*	*	*lig	*	*	*	*	*
2.G\	Spi-	1d	Spi-	2G/	C(um)	2r	.
*	*	*	*	*	*	*	*ij
.	.	.	.	4d\	S(an-	2d\	Cum
*custos:E	*	*	*	*custos:c	*	*	*
4F\	.	.	.	4d\	-cto)	.	.
!LO:LB:g=original	!	!	!	!LO:LB:g=original	!	!	!
2E\	.	1e	.	2.c\	Spi-	2g\	San-
2C/	-ri-	.	.	.	.	2g\	-cto
.	.	.	.	4B\	-ri-	.	.
*	*	*Xlig	*	*	*	*	*
=140-	=140-	=140-	=140-	=140-	=140-	=140-	=140-
1D	-tu	1d	.	2A/	-tu	2.f\	Spi-
*	*	*	*	*	*ij	*	*
.	.	.	.	2D/	c(um)	.	.
.	.	.	.	.	.	4f\	-ri-
2r	.	1c	.	2A\	S(an-	1e	.
*	*ij	*	*	*	*	*	*
2AA/	cum	.	.	2A\	-cto)	.	.
=141-	=141-	=141-	=141-	=141-	=141-	=141-	=141-
2E\	Sa(n)-	1B	-ri-	2.G/	Spi-	2e\	-tu
2E\	-cto	.	.	.	.	4r	.
.	.	.	.	4G/	-ri-	4B/	Cum
2D/	Spi-	1B	-tu	2Fny/	-tu	2d\	San-
*	*	*	*	*	*Xij	*	*
2BB/	-ri-	.	.	2D/	.	2d\	-cto
=142-	=142-	=142-	=142-	=142-	=142-	=142-	=142-
1C	-tu	1G	in	1E	.	2.c/	Spi-
.	.	.	.	.	.	4c/	-ri-
*	*Xij	*lig	*	*	*	*	*
2r	.	1G	glo-	2r	.	2B/	-tu
*	*	*	*	*	*	*	*Xij
2C/	in	.	.	2c\	in	2e\	in
=143-	=143-	=143-	=143-	=143-	=143-	=143-	=143-
2.F\	glo-	1A	.	2.c\	gl(o-	2.f\	gl(o-
4F\	-ri-	.	.	4c\	-ri)-	4f\	-ri)-
*	*	*Xlig	*	*	*	*	*
1C	-a	1c	.	1c	-a	1e	-a
=144-	=144-	=144-	=144-	=144-	=144-	=144-	=144-
2r	.	1c	-ri-	2e\	in	2r	.
2F\	in	.	.	2.f\	gl(o-	2a\	in
2.c\	glo-	1c	-a	.	.	2.g\	glo-
.	.	.	.	4f\	-ri)-	.	.
.	.	.	.	2e\	-a	.	.
4c\	-ri-	.	.	.	.	4g\	-ri-
=145-	=145-	=145-	=145-	=145-	=145-	=145-	=145-
*	*	*lig	*	*	*	*	*
*	*	*	*	*	*	*custos:g	*
1G	-a	1B	De-	4d\	De-	1g	-a
.	.	.	.	4c\	.	.	.
.	.	.	.	4B\	.	.	.
.	.	.	.	4A/	.	.	.
!	!	!	!	!	!	!LO:LB:g=original	!
1E	De-	1c	.	1G	.	2g\	De-
.	.	.	.	.	.	2g\	-i
*	*	*Xlig	*	*	*	*	*
=146-	=146-	=146-	=146-	=146-	=146-	=146-	=146-
1D	-i	1d	.	1A	i	2f\	Pa-
.	.	.	.	.	.	4d\	.
.	.	.	.	.	.	4e\	.
*	*	*lig	*	*	*	*	*
4D\	Pa-	1d	.	2.A/	Pa-	4f\	.
4E\	.	.	.	.	.	4g\	.
4F\	.	.	.	.	.	2.a\	.
4G\	.	.	.	4B\	.	.	.
=147-	=147-	=147-	=147-	=147-	=147-	=147-	=147-
4A\	.	1c	.	4c\	.	.	.
4B\	.	.	.	4d\	.	8g\L	.
.	.	.	.	.	.	8f\J	.
2c\	.	.	.	2e\	.	4e\	.
.	.	.	.	.	.	4f\	.
*	*	*Xlig	*	*	*	*	*
2.G\	.	1B	.	4d\	.	2g\	.
.	.	.	.	4c\	.	.	.
.	.	.	.	4B\	.	2d\	.
4F\	.	.	.	4A/	.	.	.
=148-	=148-	=148-	=148-	=148-	=148-	=148-	=148-
4E\	.	1c	-i	2G/	.	4e\	.
4D\	.	.	.	.	.	4f\	.
2C/	.	.	.	2e\	.	1g	.
*	*	*	*	*custos:B	*	*	*
1D	.	1A	Pa-	1d	.	.	.
.	.	.	.	.	.	2f#X\	.
!	!	!	!	!LO:PB:g=original	!	!	!
=149-	=149-	=149-	=149-	=149-	=149-	=149-	=149-
2GG/	-tris	1G	tris	2B\	tris	2g\	-tris
*custos:C	*	*	*	*	*	*	*
2GG/	in	.	.	2B\	in	2d\	in
!LO:PB:g=original	!	!	!	!	!	!	!
*	*	*lig	*	*	*	*	*
2.C/	glo-	1G	A-	2.c\	glo-	2.e\	glo-
4C/	-ri-	.	.	4c\	-ri-	4e\	-ri-
=150-	=150-	=150-	=150-	=150-	=150-	=150-	=150-
2GG/	-a	1d	.	2B/	-a	2d\	-a
2D/	in-	.	.	2A/	in	2fny\	in
*	*	*Xlig	*	*	*	*	*
2.A\	-glo-	1c	.	2.c\	glo-	2.e\	gl(o-
4A\	-ri-	.	.	4c\	-ri-	4e\	-ri)-
=151-	=151-	=151-	=151-	=151-	=151-	=151-	=151-
*	*	*lig	*	*	*	*	*
1G	-a	1d	.	1B	-a	2g\	-a
.	.	.	.	.	.	1g	De-
2C/	De-	1e	.	1.c	De-	.	.
2C/	-i	.	.	.	.	2e\	-i
*	*	*Xlig	*	*	*	*	*
=152-	=152-	=152-	=152-	=152-	=152-	=152-	=152-
!	!	!	!	!	!	!LO:TX:a:t=P:problem=# above	!
0D	Pa-	1d	.	.	.	2f#X\	Pa-
.	.	.	.	2B\	-i	1g	.
*	*	*lig	*	*	*	*	*
.	.	1d	.	1A	Pa-	.	.
!	!	!	!	!	!	!LO:TX:a:t=P:problem=# above	!
.	.	.	.	.	.	2f#X\	.
=153-	=153-	=153-	=153-	=153-	=153-	=153-	=153-
1GG	-tris	1B	.	2G/	-tris	1g	-tris
.	.	.	.	2.d\	A-	.	.
*	*	*Xlig	*	*	*	*	*
*	*	*lig	*	*	*	*	*
1GG	A-	1d	.	.	.	2.g\	A-
.	.	.	.	4c\	.	.	.
.	.	.	.	2B/	.	.	.
.	.	.	.	.	.	4fny\	.
=154-	=154-	=154-	=154-	=154-	=154-	=154-	=154-
1AA	.	1c	.	1A	.	4e\	.
.	.	.	.	.	.	4d\	.
.	.	.	.	.	.	2c/	.
*	*	*Xlig	*	*	*	*	*
*	*	*lig	*	*	*	*	*
2.BB/	.	1B	.	1G	-men	2.d\	.
4C/	.	.	.	.	.	4e\	.
=155-	=155-	=155-	=155-	=155-	=155-	=155-	=155-
1D	.	1A	.	2d\	A-	2f\	.
.	.	.	.	4d\	.	1d	.
.	.	.	.	4c\	.	.	.
*	*	*Xlig	*	*	*	*	*
1E	.	1G	.	4B\	.	.	.
.	.	.	.	4A\	.	.	.
!	!	!	!	!	!	!LO:TX:b:t=P:problem=# below	!
.	.	.	.	2G/	.	2c#X/	.
=156-	=156-	=156-	=156-	=156-	=156-	=156-	=156-
1D	.	1A	.	2F/	.	1d	.
.	.	.	.	2.A/	.	.	.
2.BB/	.	1B	.	.	.	0.d	.
.	.	.	.	4G/	.	.	.
.	.	.	.	1G/	.	.	.
4C/	.	.	.	.	.	.	.
=157-	=157-	=157-	=157-	=157-	=157-	=157-	=157-
0D	.	0A	.	.	.	.	.
!	!	!	!	!LO:TX:b:t=P:problem=# below	!	!	!
.	.	.	.	4F#X/	.	.	.
.	.	.	.	4E/	.	.	.
!	!	!	!	!LO:TX:a:t=P:problem=# above	!	!	!
.	.	.	.	1F#X	.	.	.
=158-	=158-	=158-	=158-	=158-	=158-	=158-	=158-
1GG	-men	[0G;l	-men	1G	men	1B	men
2r	.	.	.	2r	.	2r	.
*	*ij	*	*	*	*ij	*	*
1C/	A-	.	.	1e\	A-	1cny\	A-
=159-	=159-	=159-	=159-	=159-	=159-	=159-	=159-
.	.	0G_	.	.	.	.	.
2BB/	.	.	.	2d\	.	2d\	.
1C	.	.	.	1c	.	1e	.
=160-	=160-	=160-	=160-	=160-	=160-	=160-	=160-
0GG;l	-men	0G]	.	0B;;l	-men	0d;<l	-[men]
*	*Xij	*	*	*	*Xij	*	*
==	==	==	==	==	==	==	==
*-	*-	*-	*-	*-	*-	*-	*-
!!!system-decoration: [(s1,s2,s3,s4)]
!!!RDF**kern: < = below
!!!RDF**kern: l = terminal long
!!!ENC: Marta Opryszak
!!!END: 2022-01-16
!!!ENC: Marta Lawrence
!!!END: 2022-01-23
